!!!OTL: "Der Wildschuetz" GRIASS DI GOTT, MAIN LIABI ROES'L
!!!ARE: Europa, Mitteleuropa, Oesterreich
!!!SCT: Z1054
!!!YEM: Copyright 1995, estate of Helmut Schaffrath.
**kern
*ICvox
*Ivox
*M3/4
*k[f#]
*G:
{8d
8f#
=1
4g
8g
8dd
8b
8g
=2
8g
8f#
8e
8d}
{8d
8f#
=3
4.g
8a
8b
8cc
=4
2dd}
{8d
8f#
=5
4g
8g
8dd
8b
8g
=6
8g
8f#
8e
8d}
{8d
8f#
=7
4g
8g
8f#
8g
8a
=8
2b}
{4b
=9
8b
8a
8a
8g
8a
8b
=10
2g}
==
!!!AGN: Romanze, Ballade, Staende -, Jaeger - Lied
!!!ONB: ESAC (Essen Associative Code) Database: ZUCCAL
!!!AMT: simple triple
!!!AIN: vox
!!!EED: Helmut Schaffrath
!!!EEV: 1.0
*-
